X:819
T:James F Dickie's Delight
C:J Murdoch Henderson, 1932
S:From the playing of Nigel Gatherer
Z:Nigel Gatherer
M:4/4
Q:100
L:1/8
K:A
C>B,A,>C     D>F A2 | GB/G/ E>G A>c e2 | d>fa>g (3fed  (3cde | f<F B>A (3GFE (3DCB, |
A,/CB,/ A,>C D>F A2 | GB/G/ E>G A>c e2 | d>fa>f (3e>ag (3fed | e<Ec>B   A2    A   ||
E | A>ce>a    G>Be>g    | F>Ad>f    E>Ac<e    | C>EA>c (3fed (3cBA | B<FB>A G/BG/ (3EFG  |
    A>c e/aA/ G>B e/gG/ | F>A d/fF/ E>A c/eA/ | d>cd>f e/ag/ (3fed | e<Ec>B A2     A2   ||
<end>
<start>
